X:1
T:ijsgfoisdf
T:One Horse Sleigh
T:James Pierpont
C:James Pierpont
%%score { 1 | 2 }
L:1/8
Q:1/4=80
M:2/4
K:Ab
V:1 treble nm="Piano" snm="Pno."
V:2 bass 
V:1
"^\n" [CE]c BA | [CE]4 | [CE]c BA | [DF]4 | [DF]d cB | Ge =de | fd BG | A4 |:!mp! [CE]c BA | %9
 [CE]4 | [CE]c BA | [DF]4 | [DF]d cB | [EG]4 | z [EGB] [EGB][EGB] | z [CEA] [CEA][CEA] | [CE]c BA | %17
 [CE]4 | [CE]c BA | [DF]4 | [DF]d cB | z [B,EG] z [B,EG] | z [B,DEG] z [B,DEG]- | %23
 [B,DEG][CEA] [CEA]2 | [EAc][EAc] [EAc]2 | [EBe][EBe] [EBe]2 | !>![Ac][Ac] !>![Acf][Ac]/f/ | %27
 !>![Gc=e]4 | fd Af | ec AA/B/ | cB AB | c4 | [EAc][EAc] [EAc]2 | [EBe][EBe] [EBe]2 | %34
 !>![Ac][Ac] !>![Acf][Ac]/f/ | !>![Gc=e]4 | Fd cB | Ae =de/e/ | fe dB |{B} A4 :| z4 | z4 | z4 | %43
 z4 | z4 | z4 | z4 | z4 | z4 | z4 | z4 | z4 | z4 | z4 | z4 | z4 | z4 | z4 | z4 | z4 | z4 | z4 | %62
 z4 | z4 | z4 | z4 | z4 | z4 | z4 | z4 | z4 | z4 | z4 | z4 | z4 | z4 | z4 | z4 | z4 | z4 |] %80
V:2
!pp!!<(! [A,,A,]2 z z!<)! |"^Suave y glamourosamente" [A,,A,]2 z z | [A,,A,]2 z2 | [D,D]2 z A, | %4
 D, z F, z | D,2 F,2 | D, z G, z | [A,C]4 |: A,,2 A,,2 | A,,4 | A,,2 A,,2 | D,,2 D,,2 | D,,2 D,,2 | %13
 G,,2 G,,2 | E,,4 | E,, z z2 | A,,2 A,,2 | A,,4 | A,,2 A,,2 | D,,4 | D,,2 D,,2 | E,,2 E,,2 | %22
 E,,2 E,,2 | A,,4 |!fff!!>(! A,,4!>)! | G,,4 | F,,4 | [C,=E,G,C]C, G,C | [F,A,D] z [F,A,D] z | %29
 [E,A,C] z [E,A,C] z | [E,B,D] z [E,B,D] z |!f! [E,A,C]4 |!fff!!>(! A,,4!>)! | G,,4 | F,,4 | %35
 [C,=E,G,C]C, G,C | [F,A,D]2 [F,A,D]2 | [E,A,C]2 [E,A,C]2 | [E,G,B,D]2 [E,G,B,D]2 | [E,A,C]4 :| %40
 z4 | z4 | z4 | z4 | z4 | z4 | z4 | z4 | z4 | z4 | z4 | z4 | z4 | z4 | z4 | z4 | z4 | z4 | z4 | %59
 z4 | z4 | z4 | z4 | z4 | z4 | z4 | z4 | z4 | z4 | z4 | z4 | z4 | z4 | z4 | z4 | z4 | z4 | z4 | %78
 z4 | z4 |] %80

